static/img/in-field/switch-label-right-dark.svg

<svg fill="none" height="56" viewBox="0 0 144 56" width="144" xmlns="http://www.w3.org/2000/svg"><rect fill="#019aeb" height="32" rx="16" transform="matrix(1 0 0 -1 7 44)" width="64"/><g fill="#fff"><path d="m68 28c0 7.1797-5.8203 13-13 13s-13-5.8203-13-13 5.8203-13 13-13 13 5.8203 13 13z"/><path d="m88.1592 37v-15.7051h1.8262v14.0508h6.9287v1.6543zm18.6518 0-.355-1.6758h-.086c-.587.7376-1.174 1.239-1.762 1.5039-.58.2578-1.307.3867-2.18.3867-1.168 0-2.084-.3007-2.7503-.9023-.6588-.6016-.9882-1.4574-.9882-2.5674 0-2.3776 1.9015-3.6237 5.7045-3.7383l1.998-.0644v-.7305c0-.9238-.201-1.6042-.602-2.041-.394-.444-1.028-.666-1.901-.666-.981 0-2.091.3008-3.33.9023l-.548-1.3642c.58-.3151 1.214-.5622 1.901-.7412.695-.1791 1.389-.2686 2.084-.2686 1.404 0 2.442.3115 3.115.9346.681.623 1.021 1.622 1.021 2.997v8.0352zm-4.029-1.2568c1.11 0 1.98-.3044 2.611-.9131.637-.6087.956-1.461.956-2.5567v-1.0634l-1.784.0752c-1.418.0501-2.442.2721-3.072.666-.623.3867-.934.9918-.934 1.8154 0 .6445.193 1.1351.58 1.4717.394.3366.941.5049 1.643.5049zm14.763-10.71c1.547 0 2.746.53 3.599 1.5898.859 1.0528 1.289 2.5459 1.289 4.4795s-.434 3.4375-1.3 4.5118c-.86 1.067-2.056 1.6005-3.588 1.6005-.766 0-1.468-.1396-2.106-.4189-.63-.2865-1.16-.7233-1.589-1.3105h-.129l-.376 1.5146h-1.279v-16.7148h1.784v4.0605c0 .9095-.029 1.7259-.086 2.4492h.086c.83-1.1745 2.062-1.7617 3.695-1.7617zm-.258 1.4932c-1.217 0-2.095.3509-2.632 1.0527-.537.6947-.805 1.8691-.805 3.5234s.275 2.8396.827 3.5557c.551.709 1.436 1.0635 2.653 1.0635 1.096 0 1.912-.3975 2.449-1.1924.537-.8021.806-1.9515.806-3.4482 0-1.5326-.269-2.6749-.806-3.4268-.537-.752-1.368-1.1279-2.492-1.1279zm13.495 10.6884c-1.74 0-3.115-.5299-4.125-1.5898-1.002-1.0599-1.504-2.5316-1.504-4.415 0-1.8978.466-3.4053 1.397-4.5225.938-1.1172 2.195-1.6758 3.77-1.6758 1.476 0 2.643.487 3.502 1.461.86.9668 1.289 2.2451 1.289 3.8349v1.1279h-8.11c.036 1.3822.383 2.4314 1.042 3.1475.666.7162 1.601 1.0742 2.804 1.0742 1.267 0 2.521-.2649 3.759-.7949v1.5898c-.63.2722-1.228.4655-1.794.5801-.558.1218-1.235.1826-2.03.1826zm-.483-10.7099c-.945 0-1.701.3079-2.267.9238-.558.6159-.888 1.4681-.988 2.5567h6.155c0-1.1244-.25-1.9838-.752-2.5782-.501-.6015-1.217-.9023-2.148-.9023zm9.896 10.4951h-1.783v-16.7148h1.783z"/></g></svg>

<svg width="144" height="56" viewBox="0 0 144 56" fill="none" xmlns="http://www.w3.org/2000/svg">
<rect width="64" height="32" rx="16" transform="matrix(1 0 0 -1 7 44)" fill="#019AEB"/>
<path d="M68 28C68 35.1797 62.1797 41 55 41C47.8203 41 42 35.1797 42 28C42 20.8203 47.8203 15 55 15C62.1797 15 68 20.8203 68 28Z" fill="#fff"/>
<path d="M88.1592 37V21.2949H89.9854V35.3457H96.9141V37H88.1592ZM106.811 37L106.456 35.3242H106.37C105.783 36.0618 105.196 36.5632 104.608 36.8281C104.028 37.0859 103.301 37.2148 102.428 37.2148C101.26 37.2148 100.344 36.9141 99.6777 36.3125C99.0189 35.7109 98.6895 34.8551 98.6895 33.7451C98.6895 31.3675 100.591 30.1214 104.394 30.0068L106.392 29.9424V29.2119C106.392 28.2881 106.191 27.6077 105.79 27.1709C105.396 26.7269 104.762 26.5049 103.889 26.5049C102.908 26.5049 101.798 26.8057 100.559 27.4072L100.011 26.043C100.591 25.7279 101.225 25.4808 101.912 25.3018C102.607 25.1227 103.301 25.0332 103.996 25.0332C105.4 25.0332 106.438 25.3447 107.111 25.9678C107.792 26.5908 108.132 27.5898 108.132 28.9648V37H106.811ZM102.782 35.7432C103.892 35.7432 104.762 35.4388 105.393 34.8301C106.03 34.2214 106.349 33.3691 106.349 32.2734V31.21L104.565 31.2852C103.147 31.3353 102.123 31.5573 101.493 31.9512C100.87 32.3379 100.559 32.943 100.559 33.7666C100.559 34.4111 100.752 34.9017 101.139 35.2383C101.533 35.5749 102.08 35.7432 102.782 35.7432ZM117.545 25.0332C119.092 25.0332 120.291 25.5632 121.144 26.623C122.003 27.6758 122.433 29.1689 122.433 31.1025C122.433 33.0361 121.999 34.54 121.133 35.6143C120.273 36.6813 119.077 37.2148 117.545 37.2148C116.779 37.2148 116.077 37.0752 115.439 36.7959C114.809 36.5094 114.279 36.0726 113.85 35.4854H113.721L113.345 37H112.066V20.2852H113.85V24.3457C113.85 25.2552 113.821 26.0716 113.764 26.7949H113.85C114.68 25.6204 115.912 25.0332 117.545 25.0332ZM117.287 26.5264C116.07 26.5264 115.192 26.8773 114.655 27.5791C114.118 28.2738 113.85 29.4482 113.85 31.1025C113.85 32.7568 114.125 33.9421 114.677 34.6582C115.228 35.3672 116.113 35.7217 117.33 35.7217C118.426 35.7217 119.242 35.3242 119.779 34.5293C120.316 33.7272 120.585 32.5778 120.585 31.0811C120.585 29.5485 120.316 28.4062 119.779 27.6543C119.242 26.9023 118.411 26.5264 117.287 26.5264ZM130.782 37.2148C129.042 37.2148 127.667 36.6849 126.657 35.625C125.655 34.5651 125.153 33.0934 125.153 31.21C125.153 29.3122 125.619 27.8047 126.55 26.6875C127.488 25.5703 128.745 25.0117 130.32 25.0117C131.796 25.0117 132.963 25.4987 133.822 26.4727C134.682 27.4395 135.111 28.7178 135.111 30.3076V31.4355H127.001C127.037 32.8177 127.384 33.8669 128.043 34.583C128.709 35.2992 129.644 35.6572 130.847 35.6572C132.114 35.6572 133.368 35.3923 134.606 34.8623V36.4521C133.976 36.7243 133.378 36.9176 132.812 37.0322C132.254 37.154 131.577 37.2148 130.782 37.2148ZM130.299 26.5049C129.354 26.5049 128.598 26.8128 128.032 27.4287C127.474 28.0446 127.144 28.8968 127.044 29.9854H133.199C133.199 28.861 132.949 28.0016 132.447 27.4072C131.946 26.8057 131.23 26.5049 130.299 26.5049ZM140.195 37H138.412V20.2852H140.195V37Z" fill="#fff"/>
</svg>
